icons/cloudy-day.svg

<svg width="66" height="52" viewBox="0 0 66 52" fill="none" xmlns="http://www.w3.org/2000/svg">
<path d="M0 39.7077C0 41.9427 0.540179 44.0038 1.62054 45.8911C2.70089 47.7784 4.17411 49.2684 6.04018 50.361C7.90625 51.4537 9.91964 52 12.1049 52H38.6964C40.8817 52 42.9196 51.4537 44.7857 50.361C46.6518 49.2684 48.1496 47.7784 49.2299 45.8911C50.3103 44.0038 50.875 41.9427 50.875 39.7077C50.875 38.0688 50.5313 36.405 49.8438 34.7412C51.7098 32.4565 52.6429 29.7001 52.6429 26.5463C52.6429 24.7832 52.2991 23.0946 51.6362 21.4804C50.9732 19.8663 50.0402 18.5005 48.8862 17.3333C47.7321 16.1662 46.3817 15.2225 44.7857 14.5521C43.1897 13.8567 41.5201 13.5339 39.7768 13.5339C36.1429 13.5339 32.9754 14.9742 30.25 17.8548C28.3594 16.7622 26.1496 16.2159 23.6205 16.2159C20.1585 16.2159 17.1138 17.3085 14.4621 19.469C11.8103 21.6294 10.0915 24.4107 9.35491 27.788C6.60491 28.4336 4.37054 29.8491 2.62723 32.084C0.883929 34.319 0 36.852 0 39.7077ZM4.19866 39.7077C4.19866 37.6218 4.88616 35.8338 6.26116 34.319C7.63616 32.8042 9.35491 31.9351 11.4174 31.6867L12.6451 31.6122C12.9397 31.6122 13.1116 31.4632 13.1116 31.1652L13.2835 29.8243C13.6272 27.1423 14.7812 24.8825 16.7455 23.0946C18.7098 21.2818 21.0179 20.3878 23.6451 20.3878C26.346 20.3878 28.7031 21.3066 30.692 23.1194C32.7054 24.9322 33.8103 27.1671 34.0558 29.8491L34.2277 31.2894C34.2768 31.5626 34.4487 31.7116 34.7433 31.7116H38.6964C40.8571 31.7116 42.7232 32.5062 44.2946 34.0955C45.8661 35.6848 46.6518 37.5473 46.6518 39.7326C46.6518 41.9924 45.8661 43.9045 44.3192 45.4938C42.7723 47.0831 40.8817 47.8777 38.721 47.8777H12.1049C9.9442 47.8777 8.10268 47.0831 6.53125 45.469C4.98437 43.8548 4.19866 41.9427 4.19866 39.7077ZM20.6496 9.23782C20.6496 9.83381 20.846 10.3553 21.2388 10.8023L22.8594 12.3916C23.4732 12.8634 23.9888 13.0621 24.4308 13.0124C24.9464 13.0124 25.3884 12.7889 25.7812 12.3668C26.1741 11.9446 26.3705 11.4231 26.3705 10.8271C26.3705 10.2311 26.1496 9.73448 25.7321 9.36199L24.2835 7.72302C23.8415 7.32569 23.3504 7.12703 22.7857 7.12703C22.1964 7.12703 21.6808 7.32569 21.2634 7.74785C20.846 8.14518 20.6496 8.64183 20.6496 9.23782ZM33.7612 20.2388C35.4554 18.575 37.4688 17.7555 39.7768 17.7555C42.2076 17.7555 44.2701 18.5998 45.9643 20.3133C47.6585 22.0267 48.5179 24.0879 48.5179 26.5463C48.5179 28.086 48.1004 29.6256 47.2656 31.1156C44.8839 28.7316 42.0357 27.5396 38.6964 27.5396H37.9107C37.2969 24.8329 35.9219 22.3992 33.7612 20.2388ZM37.7634 7.12703C37.7634 7.77268 37.9598 8.26934 38.3281 8.66667C38.6964 9.06399 39.1875 9.23782 39.7768 9.23782C40.4152 9.23782 40.9062 9.03916 41.2991 8.66667C41.692 8.26934 41.8638 7.77268 41.8638 7.12703V2.03629C41.8638 1.44031 41.6674 0.968481 41.2746 0.571156C40.8817 0.17383 40.3906 0 39.7768 0C39.1875 0 38.721 0.198663 38.3281 0.571156C37.9353 0.943648 37.7634 1.44031 37.7634 2.03629V7.12703V7.12703ZM51.317 12.8138C51.317 13.4594 51.4888 13.9561 51.8571 14.3534C52.3728 14.7507 52.8884 14.9494 53.3795 14.9494C53.8214 14.9494 54.3125 14.7507 54.8281 14.3534L58.3393 10.8023C58.7321 10.3553 58.9286 9.83381 58.9286 9.21299C58.9286 8.617 58.7321 8.12034 58.3393 7.72302C57.9464 7.32569 57.4554 7.12703 56.8906 7.12703C56.3013 7.12703 55.8348 7.32569 55.4665 7.72302L51.8571 11.2741C51.4888 11.7459 51.317 12.2426 51.317 12.8138ZM53.2567 42.2159C53.2567 42.8118 53.4531 43.3333 53.8705 43.7803L55.4665 45.3448C55.8348 45.7421 56.3013 45.9408 56.8906 45.9408C57.4799 45.9408 57.971 45.7421 58.3638 45.32C58.7567 44.8978 58.9531 44.4011 58.9531 43.7803C58.9531 43.234 58.7567 42.7373 58.3638 42.34L56.7679 40.7259C56.375 40.3286 55.9085 40.1299 55.3683 40.1299C54.779 40.1299 54.2879 40.3286 53.8951 40.7259C53.4777 41.1232 53.2567 41.6199 53.2567 42.2159ZM56.8661 26.5463C56.8661 27.1175 57.0871 27.5893 57.5045 27.9866C57.8973 28.384 58.4129 28.5826 59.0022 28.5826H64.0112C64.5759 28.5826 65.0424 28.384 65.4353 28.0115C65.8281 27.639 66 27.1423 66 26.5463C66 25.9503 65.8036 25.4537 65.4353 25.0564C65.067 24.659 64.5759 24.4355 64.0112 24.4355H59.0022C58.4129 24.4355 57.9219 24.6342 57.5045 25.0564C57.0625 25.4785 56.8661 25.9752 56.8661 26.5463Z" fill="#0F172A"/>
</svg>

<?xml version="1.0" encoding="UTF-8"?><svg id="Layer_2" xmlns="http://www.w3.org/2000/svg" viewBox="0 0 66 52"><defs><style>.cls-1{fill:#ca6800;}</style></defs><g id="Layer_1-2"><path id="cloudy-day" class="cls-1" d="M0,39.71c0,2.24,.54,4.3,1.62,6.18,1.08,1.89,2.55,3.38,4.42,4.47,1.87,1.09,3.88,1.64,6.06,1.64h26.59c2.19,0,4.22-.55,6.09-1.64,1.87-1.09,3.36-2.58,4.44-4.47,1.08-1.89,1.65-3.95,1.65-6.18,0-1.64-.34-3.3-1.03-4.97,1.87-2.28,2.8-5.04,2.8-8.19,0-1.76-.34-3.45-1.01-5.07-.66-1.61-1.6-2.98-2.75-4.15-1.15-1.17-2.5-2.11-4.1-2.78-1.6-.7-3.27-1.02-5.01-1.02-3.63,0-6.8,1.44-9.53,4.32-1.89-1.09-4.1-1.64-6.63-1.64-3.46,0-6.51,1.09-9.16,3.25-2.65,2.16-4.37,4.94-5.11,8.32-2.75,.65-4.98,2.06-6.73,4.3-1.74,2.24-2.63,4.77-2.63,7.62Zm4.2,0c0-2.09,.69-3.87,2.06-5.39s3.09-2.38,5.16-2.63l1.23-.07c.29,0,.47-.15,.47-.45l.17-1.34c.34-2.68,1.5-4.94,3.46-6.73,1.96-1.81,4.27-2.71,6.9-2.71s5.06,.92,7.05,2.73c2.01,1.81,3.12,4.05,3.36,6.73l.17,1.44c.05,.27,.22,.42,.52,.42h3.95c2.16,0,4.03,.79,5.6,2.38,1.57,1.59,2.36,3.45,2.36,5.64s-.79,4.17-2.33,5.76c-1.55,1.59-3.44,2.38-5.6,2.38H12.1c-2.16,0-4-.79-5.57-2.41-1.55-1.61-2.33-3.53-2.33-5.76ZM20.65,9.24c0,.6,.2,1.12,.59,1.56l1.62,1.59c.61,.47,1.13,.67,1.57,.62,.52,0,.96-.22,1.35-.65,.39-.42,.59-.94,.59-1.54s-.22-1.09-.64-1.47l-1.45-1.64c-.44-.4-.93-.6-1.5-.6s-1.1,.2-1.52,.62c-.42,.4-.61,.89-.61,1.49Zm13.11,11c1.69-1.66,3.71-2.48,6.02-2.48,2.43,0,4.49,.84,6.19,2.56,1.69,1.71,2.55,3.77,2.55,6.23,0,1.54-.42,3.08-1.25,4.57-2.38-2.38-5.23-3.58-8.57-3.58h-.79c-.61-2.71-1.99-5.14-4.15-7.3Zm4-13.11c0,.65,.2,1.14,.56,1.54,.37,.4,.86,.57,1.45,.57,.64,0,1.13-.2,1.52-.57,.39-.4,.56-.89,.56-1.54V2.04c0-.6-.2-1.07-.59-1.47-.39-.4-.88-.57-1.5-.57s-1.06,.2-1.45,.57c-.39,.37-.56,.87-.56,1.47V7.13h0Zm13.55,5.69c0,.65,.17,1.14,.54,1.54,.52,.4,1.03,.6,1.52,.6,.44,0,.93-.2,1.45-.6l3.51-3.55c.39-.45,.59-.97,.59-1.59s-.2-1.09-.59-1.49c-.39-.4-.88-.6-1.45-.6s-1.06,.2-1.42,.6l-3.61,3.55c-.37,.47-.54,.97-.54,1.54Zm1.94,29.4c0,.6,.2,1.12,.61,1.56l1.6,1.56c.37,.4,.83,.6,1.42,.6s1.08-.2,1.47-.62c.39-.42,.59-.92,.59-1.54,0-.55-.2-1.04-.59-1.44l-1.6-1.61c-.39-.4-.86-.6-1.4-.6-.59,0-1.08,.2-1.47,.6-.42,.4-.64,.89-.64,1.49Zm3.61-15.67c0,.57,.22,1.04,.64,1.44,.39,.4,.91,.6,1.5,.6h5.01c.56,0,1.03-.2,1.42-.57,.39-.37,.56-.87,.56-1.47s-.2-1.09-.56-1.49c-.37-.4-.86-.62-1.42-.62h-5.01c-.59,0-1.08,.2-1.5,.62-.44,.42-.64,.92-.64,1.49Z"/></g></svg>
